svgs/light/timeline-arrow.svg

<svg xmlns="http://www.w3.org/2000/svg" viewBox="0 0 640 512"><!--! Font Awesome Pro 6.4.0 by @fontawesome - https://fontawesome.com License - https://fontawesome.com/license (Commercial License) Copyright 2023 Fonticons, Inc. --><path d="M144 80A32 32 0 1 0 80 80a32 32 0 1 0 64 0zm32 0c0 29.8-20.4 54.9-48 62V256H352V142c-27.6-7.1-48-32.2-48-62c0-35.3 28.7-64 64-64s64 28.7 64 64c0 29.8-20.4 54.9-48 62V256H579.8l-62.1-51.7c-6.8-5.7-7.7-15.7-2-22.5s15.7-7.7 22.5-2l95.9 79.9c.6 .5 1.1 1 1.6 1.5c2.6 2.8 4.2 6.7 4.2 10.8c0 .3 0 .7 0 1c-.2 3.5-1.5 6.7-3.6 9.2c-.6 .8-1.3 1.5-2.1 2.1l-.1 .1-95.9 79.9c-6.8 5.7-16.9 4.7-22.5-2s-4.7-16.9 2-22.5L579.8 288H256v82c27.6 7.1 48 32.2 48 62c0 35.3-28.7 64-64 64s-64-28.7-64-64c0-29.8 20.4-54.9 48-62V288H16c-8.8 0-16-7.2-16-16s7.2-16 16-16H96V142c-27.6-7.1-48-32.2-48-62c0-35.3 28.7-64 64-64s64 28.7 64 64zm32 352a32 32 0 1 0 64 0 32 32 0 1 0 -64 0zM400 80a32 32 0 1 0 -64 0 32 32 0 1 0 64 0z"/></svg>

<svg xmlns="http://www.w3.org/2000/svg" viewBox="0 0 640 512"><!--! Font Awesome Pro 6.3.0 by @fontawesome - https://fontawesome.com License - https://fontawesome.com/license (Commercial License) Copyright 2023 Fonticons, Inc. --><path d="M175.1 80C175.1 109.8 155.6 134.9 127.1 141.1V256H352V141.1C324.4 134.9 303.1 109.8 303.1 80C303.1 44.65 332.7 16 368 16C403.3 16 432 44.65 432 80C432 109.8 411.6 134.9 384 141.1V256H579.8L517.8 204.3C510.1 198.6 510.1 188.5 515.7 181.8C521.4 174.1 531.5 174.1 538.2 179.7L634.1 259.6C634.7 260.1 635.3 260.6 635.8 261.2C638.4 264 640 267.8 640 272C640 272.3 639.1 272.7 639.1 272.1C639.8 276.5 638.4 279.6 636.3 282.2C635.7 282.9 635 283.7 634.2 284.3L538.2 364.3C531.5 369.9 521.4 369 515.7 362.2C510.1 355.5 510.1 345.4 517.8 339.7L579.8 288H256V370C283.6 377.1 304 402.2 304 432C304 467.3 275.3 496 240 496C204.7 496 176 467.3 176 432C176 402.2 196.4 377.1 224 370V288H16C7.164 288 0 280.8 0 272C0 263.2 7.164 256 16 256H96V141.1C68.4 134.9 48 109.8 48 80C48 44.65 76.65 16 112 16C147.3 16 176 44.65 176 80H175.1zM111.1 48C94.33 48 79.1 62.33 79.1 80C79.1 97.67 94.33 112 111.1 112C129.7 112 143.1 97.67 143.1 80C143.1 62.33 129.7 48 111.1 48zM239.1 464C257.7 464 271.1 449.7 271.1 432C271.1 414.3 257.7 400 239.1 400C222.3 400 207.1 414.3 207.1 432C207.1 449.7 222.3 464 239.1 464zM368 48C350.3 48 336 62.33 336 80C336 97.67 350.3 112 368 112C385.7 112 400 97.67 400 80C400 62.33 385.7 48 368 48z"/></svg>
